static/img/kroki/cb43ceaaa405854240be48d99eba78b1.svg

<?xml version="1.0" encoding="us-ascii" standalone="no"?><svg xmlns="http://www.w3.org/2000/svg" xmlns:xlink="http://www.w3.org/1999/xlink" contentStyleType="text/css" height="152px" preserveAspectRatio="none" style="width:275px;height:152px;" version="1.1" viewBox="0 0 275 152" width="275px" zoomAndPan="magnify"><defs/><g><!--class azure_cosmos_db_account--><g id="elem_azure_cosmos_db_account"><rect codeLine="23" fill="#3D176E" height="39.7891" id="azure_cosmos_db_account" rx="2.5" ry="2.5" style="stroke:#000D19;stroke-width:0.5;" width="261" x="7" y="7"/><ellipse cx="22" cy="26.8945" fill="#ADD1B2" rx="11" ry="11" style="stroke:#181818;stroke-width:1.0;"/><path d="M24.9688,32.5352 Q24.3906,32.832 23.75,32.9727 Q23.1094,33.1289 22.4063,33.1289 Q19.9063,33.1289 18.5781,31.4883 Q17.2656,29.832 17.2656,26.707 Q17.2656,23.582 18.5781,21.9258 Q19.9063,20.2695 22.4063,20.2695 Q23.1094,20.2695 23.75,20.4258 Q24.4063,20.582 24.9688,20.8789 L24.9688,23.5977 Q24.3438,23.0195 23.75,22.7539 Q23.1563,22.4727 22.5313,22.4727 Q21.1875,22.4727 20.5,23.5508 Q19.8125,24.6133 19.8125,26.707 Q19.8125,28.8008 20.5,29.8789 Q21.1875,30.9414 22.5313,30.9414 Q23.1563,30.9414 23.75,30.6758 Q24.3438,30.3945 24.9688,29.8164 L24.9688,32.5352 Z " fill="#000000"/><text fill="#D9B8FF" font-family="Helvetica" font-size="17" lengthAdjust="spacing" textLength="219" x="41" y="32.7798">azure_cosmos_db_account</text></g><!--class azure_cosmos_db_table--><g id="elem_azure_cosmos_db_table"><rect codeLine="26" fill="#3D176E" height="39.7891" id="azure_cosmos_db_table" rx="2.5" ry="2.5" style="stroke:#000D19;stroke-width:0.5;" width="238" x="18.5" y="106.79"/><ellipse cx="33.5" cy="126.6845" fill="#ADD1B2" rx="11" ry="11" style="stroke:#181818;stroke-width:1.0;"/><path d="M36.4688,132.3252 Q35.8906,132.622 35.25,132.7627 Q34.6094,132.9189 33.9063,132.9189 Q31.4063,132.9189 30.0781,131.2783 Q28.7656,129.622 28.7656,126.497 Q28.7656,123.372 30.0781,121.7158 Q31.4063,120.0595 33.9063,120.0595 Q34.6094,120.0595 35.25,120.2158 Q35.9063,120.372 36.4688,120.6689 L36.4688,123.3877 Q35.8438,122.8095 35.25,122.5439 Q34.6563,122.2627 34.0313,122.2627 Q32.6875,122.2627 32,123.3408 Q31.3125,124.4033 31.3125,126.497 Q31.3125,128.5908 32,129.6689 Q32.6875,130.7314 34.0313,130.7314 Q34.6563,130.7314 35.25,130.4658 Q35.8438,130.1845 36.4688,129.6064 L36.4688,132.3252 Z " fill="#000000"/><text fill="#D9B8FF" font-family="Helvetica" font-size="17" lengthAdjust="spacing" textLength="196" x="52.5" y="132.5698">azure_cosmos_db_table</text></g><!--link azure_cosmos_db_account to azure_cosmos_db_table--><g id="link_azure_cosmos_db_account_azure_cosmos_db_table"><path codeLine="29" d="M137.5,47.22 C137.5,64.36 137.5,83.27 137.5,100.41 " fill="none" id="azure_cosmos_db_account-to-azure_cosmos_db_table" style="stroke:#1A83AF;stroke-width:2.0;"/><polygon fill="#1A83AF" points="137.5,106.41,141.5,97.41,137.5,101.41,133.5,97.41,137.5,106.41" style="stroke:#1A83AF;stroke-width:2.0;"/></g><!--SRC=[XT1HJy8m40VmztsA9ZoJC1TbUp4P94HVY17VZ5bkxHKQjfPS3maOlxlWrDIDmUlThxt_tSee55XlU2zgh4ia7_criHiWg4LEv7PJLpaI0wr19-DsS-OiNmLpg54yOFMER2IqnSlAoBL5xyLDq9g0N2_9RQrglcS2wuyjj1oeQGNUvynaoYrZ44PbPQfrMxO_7IGg7jzXXpbII3zaD1gfE6kJgwCkxlqd5kQ08WwFDdUCdPYT4T_gOigJ249s5ltjzsPy0gMCNOhReFRSP2ABzA- -M85okvFMKFbmZ6SaTBpVuBIp5MQfqkEp-B4FH_9qEW67BM4XdQ-TBrHPW9H7o-8ZYZvx24DPOGFwNWzV1t6U9ldiRNX__dtq1G00]--></g></svg>

<svg xmlns="http://www.w3.org/2000/svg" width="275" height="152" viewBox="0 0 275 152"><rect width="261" height="39.789" x="7" y="7" fill="#3D176E" rx="2.5" ry="2.5" style="stroke:#000d19;stroke-width:.5"/><circle cx="22" cy="26.895" r="11" fill="#ADD1B2" style="stroke:#181818;stroke-width:1"/><path d="M24.969 32.535q-.578.297-1.219.438-.64.156-1.344.156-2.5 0-3.828-1.64-1.312-1.657-1.312-4.782t1.312-4.781q1.328-1.656 3.828-1.656.703 0 1.344.156.656.156 1.219.453v2.719q-.625-.578-1.219-.844-.594-.281-1.219-.281-1.343 0-2.031 1.078-.687 1.062-.687 3.156t.687 3.172q.688 1.062 2.031 1.062.625 0 1.219-.265.594-.281 1.219-.86z"/><text x="41" y="32.78" fill="#D9B8FF" font-family="Helvetica" font-size="17" textLength="219">azure_cosmos_db_account</text><rect width="238" height="39.789" x="18.5" y="106.79" fill="#3D176E" rx="2.5" ry="2.5" style="stroke:#000d19;stroke-width:.5"/><circle cx="33.5" cy="126.684" r="11" fill="#ADD1B2" style="stroke:#181818;stroke-width:1"/><path d="M36.469 132.325q-.578.297-1.219.438-.64.156-1.344.156-2.5 0-3.828-1.64-1.312-1.657-1.312-4.782t1.312-4.781q1.328-1.656 3.828-1.656.703 0 1.344.156.656.156 1.219.453v2.719q-.625-.579-1.219-.844-.594-.281-1.219-.281-1.343 0-2.031 1.078-.687 1.062-.687 3.156t.687 3.172q.688 1.062 2.031 1.062.625 0 1.219-.265.594-.281 1.219-.86z"/><text x="52.5" y="132.57" fill="#D9B8FF" font-family="Helvetica" font-size="17" textLength="196">azure_cosmos_db_table</text><path fill="none" d="M137.5 47.22v53.19" style="stroke:#1a83af;stroke-width:2"/><path fill="#1A83AF" d="m137.5 106.41 4-9-4 4-4-4z" style="stroke:#1a83af;stroke-width:2"/></svg>
